X: 100428
T: PRINCESS BEATRICE WALTZ #2
C: Composed by William Findlay, Broxburn
R: waltz
B: K\"ohler's Violin Repository, v.3, 1885 p.272 #2
F: http://www.archive.org/details/klersviolinrepos03rugg
Z: 2012 John Chambers <jc:trillian.mit.edu>
M: 3/4
L: 1/8
K: G
uD2 |\
(B,4D2) | (C4D2) | (B,C)D2G2 | B6 |\
(d2^c2=c2) | E4F2 | A2(G3E) | D6 |\
(B,4D2) | (C4D2) | (B,C)D2G2 | (B4G2) |
d2c2A2 | F2(B3A) | G2GGGG | G2(B,2D2) |\
(B4d2) | (c4e2) |  (Bc)d2g2 | b6 |\
(d'2^c'2=c'2) | e4f2 | a2(g3e) | d6 |
(B4d2) | (c4e2) | (Bc)d2g2 | (b4g2) |\
b2a2g2 | f2e2d2 | (c2E3F) | G2z2 :|\
|: ud2 |\
b4g2 | (Bd)gBdg | f2(e3c) | A4G2 |
(FG)A2B2 | (cd)e2f2 | a2(g3e) | (d4B2) |\
b4g2 | (Bd).g.B.d.g | f2(e3c) | A4G2 |\
[1 (FG)ABcd | e2f2b2 | a2e2f2 | g2z2 :|\
[2 (FG)ABcd | e2f2a2 | g2(d3B) | G2z2 "^D.C."H|]

%%sep 2 1 500

